X: 414
T: Bir Sitemin Zehriyle...
C: Dürrî Turan
O: Turkey
F: http://compmusic.upf.edu/node/140
N: buselik--sarki--duyek--bir_sitemin--durri_turan
N: makam= buselik
N: form= sarki
N: usul= duyek = 8/4
M: 8/4
L: 1/16
K: C    
Q: 1/4=132
%%MIDI tuningsystem comma53
G2 c4 B2 cd cB c2 d2  | e2 {f}ef e2 d2 ed cd e2 {f}ed  | 
w:  ARANAĞME  |   | 
g^f _7/8ed dc cB c4 zc BA  | G2 c4 {d}cB Bc Bc Bc BA  | 
w:   |   | 
z2 f2 e2 d2 {e}dc cB BA A^G  | .A6 E2 cB A^G A4  | \
w:   |   | 
G2 c4 B2 cd cB c2 d2  | 
w:  ARANAĞME  | 
e2 {f}ef e2 d2 ed cd e2 {f}ed  | g^f _7/8ed dc cB c4 zc BA  | 
w:   |   | 
G2 c4 {d}cB Bc Bc Bc BA  | z2 f2 e2 d2 {e}dc cB BA A^G  | 
w:   |   | 
.A6 E2 cB A^G A4  | z2 A4 B2 c2 d2 e4  | \
w:   |  Bir  si te *  min   | 
z2 Bc B2 A2 cB A^G A4  | 
w:  zeh *  *  *  riy *  *  *  le   | 
G2 c4 d2 ed cd e3d  | g^f _7/8ed d3/2c/ c3/2B/ BA A^G A4  | 
w:  i çim *  den  *  *  *  ya  |  ra *  *  *  lan *  *  *  dım    | 
z2 A4 B2 c2 d2 e4  | z2 Bc B2 A2 cB A^G A4  | \
w:  Bir  si te *  min   |  zeh *  *  *  riy *  *  *  le   | 
G2 c4 d2 ed cd e4  | 
w:  i çim *  den  *  *  *  ya  | 
ef ed ed cd e8  | z2 e2 f2 a2 gf ed ed cB  | 
w:  ra *  *  *  lan *  *  *  dım    |  Gö *  zü mün  *  *  *  a  | 
cd cB c2 d2 e6 z2  | G2 c4 {d}cB c3B cB A2  | \
w:  te *  *  *  şiy *  le   |  tu tuş *  *  *  muş  *  gi  | 
Bd cB BA A^G AB cd e4  | 
w:  bi  *  *  *  yan *  *  *  dım    | 
z2 e2 f2 a2 gf ed ed cB  | cd cB c2 d2 e6 z2  | \
w:  Gö *  zü mün  *  *  *  a  |  te *  *  *  şiy *  le   | 
G2 c4 {d}cB c3B cB A2  | 
w:  tu tuş *  *  *  muş  *  gi  | 
Bd cB BA A^G A8  | z2 d4 e2 eg fe e4  | \
w:  bi  *  *  *  yan *  *  *  dım    |  Bit ti  ü *  *  *  mit   | 
z2 c_3/4d c2 (3_3/4BAB c3/2_7/8B/ AB A2 ^G2  | 
w:  rü *  *  *  *  *  ya *  *  *  sı   | 
A2 c4 d2 ed cd e3d  | g^f _7/8ed {e}d3/2c/ c3/2B/ BA A^G A4  | 
w:  bir_ uy *  ku *  *  *  dan   |  u *  *  *  *  yan *  *  *  dım    | 
z2 A4 B2 c2 d2 e4  | z2 Bc B2 A2 cB A^G A4  | \
w:  Bit ti  ü *  mit   |  rü *  *  *  yâ *  *  *  sı   | 
A2 c4 d2 ed cd e4  | 
w:  bir_ uy *  ku *  *  *  dan   | 
ef ed ed cd e8  | z2 e2 f2 a2 gf ed ed cB  | 
w:  u *  *  *  yan *  *  *  dım    |  Gö *  zü mün  *  *  *  a  | 
cd cB c2 d2 e6 z2  | G2 c4 {d}cB c3B cB A2  | \
w:  te *  *  *  şiy *  le   |  tu tuş *  *  *  muş  *  gi  | 
Bd cB BA A^G AB cd e4  | 
w:  bi  *  *  *  yan *  *  *  dım    | 
z2 e2 f2 a2 gf ed ed cB  | cd cB c2 d2 e6 z2  | \
w:  Gö *  zü mün  *  *  *  a  |  te *  *  *  şiy *  le   | 
G2 c4 {d}cB c3B cB A2  | 
w:  tu tuş *  *  *  muş  *  gi  | 
Bd cB BA A^G A8  | |


